Adwaita++-Light/panel/22/riot-tray.svg

<svg height="22" width="22" xmlns="http://www.w3.org/2000/svg">
  <g fill="#444">
    <path d="m6.4628906 3c.7998917-.0106071 1.5915351.3626685 2.0839844 1.0664062.2007601.286871.3332111.6064948.4003906.9394532h2.7324224c2.092826 0 3.791015 1.3954526 3.791015 3.4882812 0 1.2468559-.611138 2.2370674-1.541015 2.8417974l1.009765 1.443359c1.254748-1.003283 2.060547-2.540458 2.060547-4.2675782 0-3.0241715-2.462434-5.4765625-5.5-5.4765626h-4.5957031c-.1458061-.0246412-.2935207-.0365093-.4414063-.0351562zm-2.4589844 2.5195312-.0039062.0039063v.0351563c-.0002756-.0129687.0039791-.0260747.0039062-.0390626zm-.0039062.0390626v10.9160152c-.047813 3.365899 5.047813 3.365899 5 0v-2.488281h.6796875l-.0488281-.070312a2.50025 2.50025 0 0 1 -.4257813-1.931641h-2.4121093v4.6875c.0076287.53942-.8064582.53942-.7988282 0v-8.7304688c-.6022332-.1250879-1.1611847-.4650127-1.5410156-1.0078124-.287176-.4103529-.4427261-.8855805-.453125-1.375zm4.9707031.2441406c-.0053859.0437116-.002065.0871563-.0097656.1308594-.1160083.657985-.4805534 1.2320756-1.0273437 1.6152343-.3505167.2456102-.7427818.3776501-1.140625.4238281v3.2128908h.796875 1.9140624a2.50025 2.50025 0 0 1 1.6621098-1.181641h-2.166016v-2.9863279h2.5c.875806 0 1.5.6221971 1.5 1.4941407 0 .7451278-.45757 1.3017037-1.136719 1.4492187a2.50025 2.50025 0 0 1 1.583985.7480465c.741261-.456195 1.224609-1.2185004 1.224609-2.2148434 0-1.6616825-1.330506-2.6914062-2.992187-2.6914062h-2.0957036z" opacity=".3"/>
    <path d="m6.4550781 3c-.4815269.0078894-.9653338.1545349-1.3886719.4511719-.5469387.3830105-.911483.9573977-1.0273437 1.6152343-.1160082.6578366.0311611 1.3200505.4140625 1.8671876.7904825 1.1296441 2.351567 1.406266 3.4804688.6152343.5467903-.3831587.9113354-.9572493 1.0273437-1.6152343.1158605-.6575403-.0311612-1.3200507-.4140625-1.8671876-.4940515-.7060274-1.289252-1.0795552-2.0917969-1.0664062zm5.1406249 6.953125a2.50025 2.50025 0 0 0 -1.9648436 3.962891l2.7929686 3.988281a2.50025 2.50025 0 1 0 4.095703-2.867188l-2.791015-3.988281a2.50025 2.50025 0 0 0 -2.132813-1.095703z"/>
  </g>
</svg>

<svg xmlns="http://www.w3.org/2000/svg" width="22" height="22" version="1.1">
 <defs>
  <style id="current-color-scheme" type="text/css">
   .ColorScheme-Text { color:#444444; } .ColorScheme-Highlight { color:#4285f4; }
  </style>
 </defs>
 <path style="fill:currentColor;opacity:0.3" class="ColorScheme-Text" d="M 6.4628906 3 C 7.2627823 2.9893929 8.0544257 3.3626685 8.546875 4.0664062 C 8.7476351 4.3532772 8.8800861 4.672901 8.9472656 5.0058594 L 11.679688 5.0058594 C 13.772514 5.0058594 15.470703 6.401312 15.470703 8.4941406 C 15.470703 9.7409965 14.859565 10.731208 13.929688 11.335938 L 14.939453 12.779297 C 16.194201 11.776014 17 10.238839 17 8.5117188 C 17 5.4875473 14.537566 3.0351563 11.5 3.0351562 L 6.9042969 3.0351562 C 6.7584908 3.010515 6.6107762 2.9986469 6.4628906 3 z M 4.0039062 5.5195312 L 4 5.5234375 L 4 5.5585938 C 3.9997244 5.5456251 4.0039791 5.5325191 4.0039062 5.5195312 z M 4 5.5585938 L 4 16.474609 C 3.952187 19.840508 9.047813 19.840508 9 16.474609 L 9 13.986328 L 9.6796875 13.986328 L 9.6308594 13.916016 A 2.50025 2.50025 0 0 1 9.2050781 11.984375 L 6.7929688 11.984375 L 6.7929688 16.671875 C 6.8005975 17.211295 5.9865106 17.211295 5.9941406 16.671875 L 5.9941406 7.9414062 C 5.3919074 7.8163183 4.8329559 7.4763935 4.453125 6.9335938 C 4.165949 6.5232409 4.0103989 6.0480133 4 5.5585938 z M 8.9707031 5.8027344 C 8.9653172 5.846446 8.9686381 5.8898907 8.9609375 5.9335938 C 8.8449292 6.5915788 8.4803841 7.1656694 7.9335938 7.5488281 C 7.5830771 7.7944383 7.190812 7.9264782 6.7929688 7.9726562 L 6.7929688 11.185547 L 7.5898438 11.185547 L 9.5039062 11.185547 A 2.50025 2.50025 0 0 1 11.166016 10.003906 L 9 10.003906 L 9 7.0175781 L 11.5 7.0175781 C 12.375806 7.0175781 13 7.6397752 13 8.5117188 C 13 9.2568466 12.54243 9.8134225 11.863281 9.9609375 A 2.50025 2.50025 0 0 1 13.447266 10.708984 C 14.188527 10.252789 14.671875 9.4904836 14.671875 8.4941406 C 14.671875 6.8324581 13.341369 5.8027344 11.679688 5.8027344 L 9.5839844 5.8027344 L 8.9707031 5.8027344 z"/>
 <path style="fill:currentColor" class="ColorScheme-Text" d="M 6.4550781 3 C 5.9735512 3.0078894 5.4897443 3.1545349 5.0664062 3.4511719 C 4.5194675 3.8341824 4.1549232 4.4085696 4.0390625 5.0664062 C 3.9230543 5.7242428 4.0702236 6.3864567 4.453125 6.9335938 C 5.2436075 8.0632379 6.804692 8.3398598 7.9335938 7.5488281 C 8.4803841 7.1656694 8.8449292 6.5915788 8.9609375 5.9335938 C 9.076798 5.2760535 8.9297763 4.6135431 8.546875 4.0664062 C 8.0528235 3.3603788 7.257623 2.986851 6.4550781 3 z M 11.595703 9.953125 A 2.50025 2.50025 0 0 0 9.6308594 13.916016 L 12.423828 17.904297 A 2.50025 2.50025 0 1 0 16.519531 15.037109 L 13.728516 11.048828 A 2.50025 2.50025 0 0 0 11.595703 9.953125 z"/>
</svg>
